X:2
T:Popcorn
N: Original
M:4/4
Q:1/4=220
L:1/4
K:C
"Bm" z2 BA|B^F E<F|B,2 BA|
B^F E<F|B,2 B^c|"A" d^c d>B|"G"^cB c>A|
BABG|B2 BA|"Bm" B^F E<F|B,2 BA|
B^F E<F|B,2 B^c|"A" d^c d>B|"G" ^cB c>A|
BAB^c|d2 ^fe|"D" ^fd A<d|^F2 ^fe|
^fd A<d|^F2 ^f^g|"F#m" a^g a>^f|"E" ^g^f g>e|"D" ^fefd|
^f2 fe|^fd A<d|^F2 ^fe|^fd A<d|
^F2 ^f^g|"F#m" a^g a>^f|"E" ^g^f g>e|"D" ^fede|
^f2 BA:|